!!!OTL: GOENSTIGER HERR UND FREUND
!!!ARE: Europa, Mitteleuropa, Deutschland
!!!SCT: E1142A
!!!YEM: Copyright 1995, estate of Helmut Schaffrath.
**kern
*ICvox
*Ivox
*M4/4
*k[f#]
*G:
{4b
=1
4.b
8b
4b
4b
=2
2.b}
{4b
=3
4b
4a
4b
4cc#
=4
2.dd}
{4a
=5
4.a
8a
4a
4a
=6
2.a}
{4a
=7
4b
4g
4g
4f#
=8
2.g}
==
!!!AGN: Trink -, Zech - Lied
!!!ONB: ESAC (Essen Associative Code) Database: ERK3
!!!AMT: simple quadruple
!!!AIN: vox
!!!EED: Helmut Schaffrath
!!!EEV: 1.0
*-
